X: 2037
T: La Bell Princess.
%R: _
B: Henry Playford "Apollo's Banquet", London 1687 (5th Edition)
F: https://archive.org/details/apollosbanquetco01rugg
Z: 2017 John Chambers <jc:trillian.mit.edu>
M: 3/2
L: 1/8
K: Gm
% - - - - - - - - - -
g |\
g6 Bcc3(B/c/) | d3G ^F3(B/A/) A3G | G6- G4zg | g4(ag/a/) b2B>cc>B |\
B3fba gf=e3g | ^f6 g2a2d2 | e3ef2 g2c3c |
c6 B2B3A |\
A3A f3=e =e3d | d6- d4 ::[M:C|] b | a4 ^f3(=e/^f/) |\
g3G B3(A/G/) | e4 d3d | c3=B c3d | B3A B3(A/G/) | ^F4 G3b |
a4 ^f3=e/^f/ | g3G B3(A/G/) | e4 d3d | c3=B c3d |\
B3A A3G | G6 za | a3b g3^f | g3a f3=e |\
f4- f3d |
b3a g3^f | g3a =e3d | d6 zb |\
a4 ^f3=e/^f/ | g3G B3(A/G/) | e4 d3d | c3=B c3d |\
B3A B3(A/G/) | ^F4 G3G |
e3e e3f | g3c =B3d |\
d4 c3g | _a3f =e3c | f3g g3(f/g/) | a6 zb |\
a4 ^f3(e/f/) | g3G B3(A/G/) | e4 d3d |
c3=B c3d |\
B3A B3(A/G/) | ^F4 G3b | a4 ^f3(e/f/) | g3d B3(A/G/) |\
e4 d3d | c3=B c3d | B3A A3G | HG6 |]
% - - - - - - - - - -

%%sep 1 1 500
%%sep 1 1 500

